X:1
T:The Hunting Song
M:4/4
L:1/8
K:C
G-G| Ge ee ee G^F| =Fd dd ^cd ef| gg ^fga-g =fe| dc BA G2| G2| ee ee ee de|\
 ff ed A2 Bc| Ge G^F =Fd AB| c4- c2||
